X:195
T: EDELE DEUTSCHE IHR HABET EMPFANGEN
N: Z0194
O: Europa, Mitteleuropa, Deutschland
R: Soldaten -, Jaeger - Lied, nationalistische Selbstdefinition
M: 4/4
L: 1/8
K: C
G,2A,B, | C2CCD2DD | E2C2
E2DD | C2B,B,A,2A,A, | G,4
C2CG, | A,2G,G,C2DC | E2D2
C2DE | D2CB,DCB,A, | G,2z2
B,C | D2D2D2 | B,2G,2
G,A, | B,2B,2B,2 | G,2E,2
G,2 | C3CE2 | D2z2
G,2 | A,2A,2A,2 | B,2B,2
B,2 | C2C2C2 | D2D2
G,2 | E2D2E2 | F2E2
D2 | C3EB,2 | C4

@@@ Tune index: 9953
